packages/ffe-icons/icons/open/400/sm/drag_handle.svg

<svg xmlns="http://www.w3.org/2000/svg" height="20" viewBox="0 -960 960 960" width="20"><path d="M228.292-360Q213-360 202.5-370.289q-10.5-10.29-10.5-25.5Q192-411 202.344-421.5q10.345-10.5 25.637-10.5h503.727Q747-432 757.5-421.711q10.5 10.29 10.5 25.5Q768-381 757.656-370.5 747.311-360 732.019-360H228.292Zm0-168Q213-528 202.5-538.289q-10.5-10.29-10.5-25.5Q192-579 202.344-589.5q10.345-10.5 25.637-10.5h503.727Q747-600 757.5-589.711q10.5 10.29 10.5 25.5Q768-549 757.656-538.5 747.311-528 732.019-528H228.292Z"/></svg>

<svg xmlns="http://www.w3.org/2000/svg" height="20" viewBox="0 -960 960 960" width="20"><path d="M228.29-360q-15.29 0-25.79-10.29t-10.5-25.5q0-15.21 10.34-25.71 10.35-10.5 25.64-10.5h503.73q15.29 0 25.79 10.29t10.5 25.5q0 15.21-10.34 25.71-10.35 10.5-25.64 10.5H228.29Zm0-168q-15.29 0-25.79-10.29t-10.5-25.5q0-15.21 10.34-25.71 10.35-10.5 25.64-10.5h503.73q15.29 0 25.79 10.29t10.5 25.5q0 15.21-10.34 25.71-10.35 10.5-25.64 10.5H228.29Z"/></svg>
